X: 3
T: Bouchard's Hornpipe
C: Mike Springer
M: C|
Z: Transcribed to abc by Mary Lou Knack 11/23/98
R: hornpipe
K: D
FE |\
"D"DFAd "G"BcdB | "A"cdec "D"d2ef | "Em"g2{f}ga gfed | "A"edcB A2dc | "G"B2{c}BA BcdB |
"D"AGFG A2Bc | "G"d2{c}df "A"edc2 | "D"d4 d2 :: fg | "D"a2ab agfa | "Em"gfef g2ag |
"Bm"f2fd gfed | "F#m"cdec A2dc | "G"B2BA "Em"BcdB | "D"AGFG A2Bc | "G"d2{c}df "A"edc2 | "D"d4 d2 :|
